X:1
T:Title
%%score { ( 1 4 5 ) | ( 2 3 ) }
L:1/8
M:4/4
K:Eb
V:1 treble nm="Grand Piano"
V:4 treble 
V:5 treble 
V:2 bass 
V:3 bass 
V:1
 z4 z2 z[Q:1/4=100] [GB] | [Ge]3 [EGB] [EAc]>[Ece] [EBd]>[EAc] | [EGB]4 [EG]2 z [B,EG] | %3
 [FA]3 [GB] [Ad]>[Ac] [GB]>[DFA] |[M:7/8] G-G-G- G3 z |[M:1/8] [B,GB] | %6
[M:4/4] [Ge]3 [EGB] [EAc]>[Ece] [EBd]>[EAc] | [EGB]4 [EG]2 z [EGB] | %8
 [EAc]3 [EAc] [FAB]>[FAB] [EAc]>[DAB] |[M:7/8] [EGe]-[EGe]-[EGe]- [EGe]3 z |[M:1/8] B | %11
[M:4/4] [GB]2- [B,G-B-]2 [B,GB]2 .[EAc]>B | [B,GB]2 [B,FA]>[EG] [FA]4 | [Ad]6 [Ad]2 | %14
 [Ge]2 B>=A [GB]4 | [Ge]6 z2 | [Ad]2 [Ac]>B [Ac]4 | [GB]2 [FA]>B c2 d2 | %18
[M:7/8] [Ge]-[Ge]-[Ge]- [Ge]3 z |] %19
V:2
 z4 z2 z [E,B,] | [E,B,]3 E, A,>A, A,>A, | z4 B,2 z E, | %3
 [B,,B,]3 [B,,B,] [B,,B,]>[B,,B,] [B,,B,]>B,, |[M:7/8] z z z2 B,2 z |[M:1/8] E, | %6
[M:4/4] [E,B,]3 E, A,>A, A,>A, | z4 B,2 z E, | A,3 A, B,>B, B,>B, |[M:7/8] E,-E,-E,- E,3 z | %10
[M:1/8] G |[M:4/4] z4 z2 z B, | B,,2 D,>B, [B,,B,]4 | [B,,B,]2 D,F, B,A, .[F,B,]>[K:treble]A | %14
 [E,B,]2 [B,G]>[B,_G][K:bass] [E,E]4 | [E,B,]2 G,B, E,B, [E,B,]>[B,G] | %16
 [B,,B,]2 [D,B,]>[B,A] [B,,B,]4 | [B,,B,]2 [D,B,]>[K:treble][B,G] [B,DA]2 [B,FA]2 | %18
[M:7/8][K:bass] [E,E]-[E,E]-[E,E]- [E,E]3 z |] %19
V:3
 x8 | x8 | E,6 z2 | x8 |[M:7/8] E,-E,-E,- E,3 z |[M:1/8] x |[M:4/4] x8 | E,6 z2 | x8 |[M:7/8] x7 | %10
[M:1/8] x |[M:4/4] E,2 G,B, E,B, .E,>G | x8 | z4 z2 z B,,[K:treble] | x4[K:bass] x4 | x8 | x8 | %17
 x7/2[K:treble] x9/2 |[M:7/8][K:bass] x7 |] %19
V:4
 x8 | x8 | x8 | x8 |[M:7/8] E- E3 z z2 |[M:1/8] x |[M:4/4] x8 | x8 | x8 |[M:7/8] x7 |[M:1/8] x | %11
[M:4/4] E2 z2 z4 | x8 | z2 B,B, z B, z z/ f/ | x8 | z2 .B,2 .B,2 [Af]>e | x8 | x8 |[M:7/8] x7 |] %19
V:5
 x8 | x8 | x8 | x8 |[M:7/8] x7 |[M:1/8] x |[M:4/4] x8 | x8 | x8 |[M:7/8] x7 |[M:1/8] x | %11
[M:4/4] x8 | x8 | z4 z2 z B, | x8 | x8 | x8 | x8 |[M:7/8] x7 |] %19

